!!!!SEGMENT: pl-kk--kk-i-3--013-001_anonim--missa-sanctus.krn
!!!cenid: 15xx:612
!!!COM: Anonim
!!!COM-rismid: pe30004985
!!!CDT:
!!!CNT:
!!!OPR: [Missa]
!!!OTL: Sanctus
!!!OMV: 001
!!!PDT:
!!!AGN:
!!!SMS-siglum: PL-Kk
!!!SMS-shelfmark: Kk.I.3
!!!SMS-shelfwork: 013-001 M
!!!SMS-variant:
!!!SMS-altvar:
!!!NIFC-rismid: 1001145493
!!!system-decoration: [(s1,s2,s3)]
!!!AIN: 1 bass 1 tenor 1 vox
!!!key:
**kern	**text	**kern	**text	**kern	**text
*part3	*part3	*part2	*part2	*part1	*part1
*staff3	*staff3	*staff2	*staff2	*staff1	*staff1
*Ibass	*	*Itenor	*	*Ivox	*
*I"Basso	*	*I"Tenore	*	*I"Canto	*
*I'B.	*	*I'T.	*	*I'C.	*
*clefF4	*	*clefC4	*	*clefC3	*
*k[]	*	*k[]	*	*k[]	*
*C:	*	*C:	*	*C:	*
*M2/1	*	*M2/1	*	*M2/1	*
*met(C|)	*	*met(C|)	*	*met(C|)	*
=1-	=1-	=1-	=1-	=1-	=1-
*2\right	*	*2\right	*	*2\right	*
*clefF3	*	*	*	*	*
*lig	*	*	*	*	*
1D	San-	1D	San-	1d	San-
*	*	*lig	*	*	*
1C	.	1E	.	1g	.
*Xlig	*	*	*	*	*
=2-	=2-	=2-	=2-	=2-	=2-
*lig	*	*	*	*	*
1D	.	1F	.	2f\	.
.	.	.	.	1d	.
*	*	*Xlig	*	*	*
*	*	*lig	*	*	*
1AA	.	1E	.	.	.
.	.	.	.	2c/	.
*Xlig	*	*	*	*	*
=3-	=3-	=3-	=3-	=3-	=3-
1A	.	1D	.	1d	.
*	*	*Xlig	*	*	*
2c\	.	0G	.	1d	.
1c\	.	.	.	.	.
=4-	=4-	=4-	=4-	=4-	=4-
.	.	.	.	1g	.
2B\	.	.	.	.	.
1c	.	1F	.	1a	.
=5-	=5-	=5-	=5-	=5-	=5-
*lig	*	*	*	*	*
1C	.	1E	.	1g	.
*custos:G	*	*	*	*custos:e	*
1F	.	1D	.	1f	.
*Xlig	*	*	*	*	*
!LO:PB:g=original	!	!	!	!LO:LB:g=original	!
=6-	=6-	=6-	=6-	=6-	=6-
0G	.	0C	.	2e/	.
.	.	.	.	1f	.
.	.	.	.	2e/	.
=7-	=7-	=7-	=7-	=7-	=7-
2F/	.	1D	.	1f	.
1D	.	.	.	.	.
*	*	*custos:F	*	*	*
.	.	1E	.	1g	.
2C/	.	.	.	.	.
!	!	!LO:LB:g=original	!	!	!
=8-	=8-	=8-	=8-	=8-	=8-
2D/	.	1F	.	2f\	.
2A\	.	.	.	2d/	.
2G/	.	0E	.	2c/	.
1A\	.	.	.	1d\	.
=9-	=9-	=9-	=9-	=9-	=9-
.	.	.	.	.	.
2G/	.	.	.	2c/	.
[y1A;<l	-ctus	[y1D;l	-ctus	[y1d;<l	-ctus
=10-	=10-	=10-	=10-	=10-	=10-
0A]yy	.	0D]yy	.	0d]yy	.
=11-	=11-	=11-	=11-	=11-	=11-
*	*	*lig	*	*	*
1A	San-	1D	San-	1d	San-
2F/	.	1A	.	1f	.
2D/	.	.	.	.	.
*	*	*Xlig	*	*	*
=12-	=12-	=12-	=12-	=12-	=12-
*	*	*lig	*	*	*
1E	.	1G	.	2g\	.
*	*	*	*	*custos:f	*
.	.	.	.	1g	.
*custos:G	*	*	*	*	*
1D	.	1A	.	.	.
!	!	!	!	!LO:LB:g=original	!
.	.	.	.	2f\	.
*	*	*Xlig	*	*	*
!LO:LB:g=original	!	!	!	!	!
=13-	=13-	=13-	=13-	=13-	=13-
*	*	*lig	*	*	*
1G	.	1B	.	1g	.
2C/	.	1c	.	1g	.
2D/	.	.	.	.	.
*	*	*Xlig	*	*	*
=14-	=14-	=14-	=14-	=14-	=14-
1E	.	1B	.	1g	.
1F	.	1A	.	2f\	.
.	.	.	.	2d/	.
=15-	=15-	=15-	=15-	=15-	=15-
1E	.	1G	.	1e	.
1D	.	1F	.	2f/	.
.	.	.	.	2d/	.
=16-	=16-	=16-	=16-	=16-	=16-
1C	.	1E	.	2g\	.
.	.	.	.	2c/	.
1BB	.	1D	.	1d	.
=17-	=17-	=17-	=17-	=17-	=17-
2BB/	.	0G	.	2e/	.
2AA/	.	.	.	2f/	.
1BB	.	.	.	1d	.
=18-	=18-	=18-	=18-	=18-	=18-
*	*	*custos:D	*	*	*
0AA	.	[y0A;<l	-ctus	2c/	.
*	*	*	*	*custos:c	*
.	.	.	.	1d	.
!	!	!	!	!LO:LB:g=original	!
.	.	.	.	2c/	.
=19-	=19-	=19-	=19-	=19-	=19-
0D	.	0A_yy	.	1d	.
.	.	.	.	1d	.
=20-	=20-	=20-	=20-	=20-	=20-
*custos:D	*	*	*	*	*
0AA;>l	ctus	0A]yy	.	0c;<l	-ctus
!LO:LB:g=original	!	!LO:LB:g=original	!	!	!
=21-	=21-	=21-	=21-	=21-	=21-
*lig	*	*	*	*lig	*
1D	San-	1D	San-	1A	San-
*	*	*lig	*	*	*
1C	.	1E	.	1c	.
*Xlig	*	*	*	*Xlig	*
=22-	=22-	=22-	=22-	=22-	=22-
*lig	*	*	*	*	*
1D	.	1F	.	1A	.
*	*	*Xlig	*	*	*
1AA	.	1E	.	1e	.
*Xlig	*	*	*	*	*
=23-	=23-	=23-	=23-	=23-	=23-
1A	.	1D	.	1f	.
2B\	.	0G	.	1g	.
1c\	.	.	.	.	.
=24-	=24-	=24-	=24-	=24-	=24-
.	.	.	.	2d/	.
2B\	.	.	.	2e/	.
1c	.	1F	.	2f/	.
.	.	.	.	2c/	.
=25-	=25-	=25-	=25-	=25-	=25-
*lig	*	*	*	*	*
*	*	*	*	*custos:c	*
1C	.	1E	.	2c/	.
!	!	!	!	!LO:PB:g=original	!
.	.	.	.	2c/	.
1F	.	1D	.	2A/	.
.	.	.	.	2B/	.
*Xlig	*	*	*	*	*
=26-	=26-	=26-	=26-	=26-	=26-
0G	.	0C	.	0c	.
=27-	=27-	=27-	=27-	=27-	=27-
2F/	.	1D	.	1A	.
1D	.	.	.	.	.
*	*	*lig	*	*	*
.	.	1E	.	2G/	.
2C/	.	.	.	2c/	.
=28-	=28-	=28-	=28-	=28-	=28-
2D/	.	1F	.	2A/	.
!LO:TX:t=P::problem=w źródle błędnie zapisana minima, dopisana drua cauda żeby zwrócić uwagę na błąd&colon; tu ma być semibrevis	!	!	!	!	!
1A	.	.	.	2d/	.
*	*	*Xlig	*	*	*
.	.	1E	ctus	2e/	.
*custos:A	*	*	*	*	*
2G/	-ctus	.	.	2g\	-ctus
!LO:LB:g=original	!	!	!	!	!
=29-	=29-	=29-	=29-	=29-	=29-
1A	.	1D	.	1f	.
1A	do-	1D	do-	1f	do-
=30-	=30-	=30-	=30-	=30-	=30-
*lig	*	*lig	*	*lig	*
1A	-mi-	1D	-mi-	1d	-mi-
1F	.	1A	.	1c	.
*Xlig	*	*Xlig	*	*Xlig	*
=31-	=31-	=31-	=31-	=31-	=31-
*	*	*custos:A	*	*custos:f	*
1F	-nus	1A	-nus	1c	-nus
!	!	!LO:PB:g=original	!	!LO:LB:g=original	!
*lig	*	*lig	*	*	*
1F	de-	1A	de-	1f	de-
=32-	=32-	=32-	=32-	=32-	=32-
1C	.	1G	.	1e	.
*Xlig	*	*Xlig	*	*	*
*lig	*	*lig	*	*	*
1G	.	1E	.	1e	.
=33-	=33-	=33-	=33-	=33-	=33-
1A	.	1F	.	2f\	.
.	.	.	.	1e	.
*Xlig	*	*Xlig	*	*	*
*lig	*	*lig	*	*	*
1G	-vs	1E	-vus	.	.
.	.	.	.	2d/	-vs
=34-	=34-	=34-	=34-	=34-	=34-
1A	.	1D	.	2e\	.
.	.	.	.	1g	sab-
*Xlig	*	*Xlig	*	*	*
1G	sab-	0G	sab-	.	.
.	.	.	.	2f\	.
=35-	=35-	=35-	=35-	=35-	=35-
1E	-ba-	.	.	1g	.
1D	.	1F	-ba-	2g\	.
.	.	.	.	2e/	.
=36-	=36-	=36-	=36-	=36-	=36-
0E	.	0G	.	2f\	.
.	.	.	.	2a\	.
*	*	*	*	*custos:f	*
.	.	.	.	2g\	.
!	!	!	!	!LO:LB:g=original	!
.	.	.	.	2f\	.
=37-	=37-	=37-	=37-	=37-	=37-
*custos:G	*	*	*	*	*
0D;>l	oth	0A;<l	-oth	1g	-ba-
.	.	.	.	1f;<l	-oth
!LO:LB:g=original	!	!	!	!	!
=38-	=38-	=38-	=38-	=38-	=38-
1G	Ple-	1C	Ple-	2e/	Ple-
.	.	.	.	2f\	-ni
*lig	*	*lig	*	*lig	*
1G	-ni	1E	-ni	1g	.
=39-	=39-	=39-	=39-	=39-	=39-
1A	.	1D	.	1f	.
*Xlig	*	*Xlig	*	*Xlig	*
1G	su(n)t	1G	su(n)t	1d	sunt
=40-	=40-	=40-	=40-	=40-	=40-
*lig	*	*lig	*	*lig	*
1C	ce-	1G	cae-	1e	ce-
1F	.	1A	.	1f	.
*Xlig	*	*Xlig	*	*Xlig	*
=41-	=41-	=41-	=41-	=41-	=41-
*	*	*custos:A	*	*	*
1D	-li	1A	-li	1f	-li
!	!	!LO:LB:g=original	!	!	!
*lig	*	*	*	*lig	*
1D	et	1A	et	1f	et
=42-	=42-	=42-	=42-	=42-	=42-
1G	.	1B	.	1g	.
*Xlig	*	*	*	*Xlig	*
*lig	*	*	*	*	*
1C	ter-	1c	ter-	1e	ter-
=43-	=43-	=43-	=43-	=43-	=43-
*	*	*	*	*custos:d	*
1G	.	1B	.	1d	.
*Xlig	*	*	*	*	*
!	!	!	!	!LO:LB:g=original	!
0D	.	0A	-ra	1d	.
=44-	=44-	=44-	=44-	=44-	=44-
.	.	.	.	2d/	-ra
.	.	.	.	2A/	glo-
1G	-ra	1G	.	2B/	.
.	.	.	.	1c\	.
=45-	=45-	=45-	=45-	=45-	=45-
*lig	*	*lig	*	*	*
1G	glo-	1d	glo-	.	.
.	.	.	.	2B/	.
1C	.	1c	.	2c/	.
.	.	.	.	2g\	-ri-
*Xlig	*	*Xlig	*	*	*
=46-	=46-	=46-	=46-	=46-	=46-
*	*	*lig	*	*	*
1G	-ri-	1d	-ri-	1g	-a
1C	.	1e	.	1g	.
*	*	*Xlig	*	*	*
=47-	=47-	=47-	=47-	=47-	=47-
*lig	*	*lig	*	*	*
1C	-a	1c	-a	0g	tu-
*custos:F	*	*	*	*	*
1G	.	1B	.	.	.
*Xlig	*	*Xlig	*	*	*
!LO:PB:g=original	!	!	!	!	!
=48-	=48-	=48-	=48-	=48-	=48-
2F/	.	1A	.	2a\	.
2D/	.	.	.	2f/	.
*	*	*lig	*	*	*
1E	tu-	1G	tu-	1g	.
=49-	=49-	=49-	=49-	=49-	=49-
1AA	.	1A	.	2e/	.
*	*	*	*	*custos:d	*
.	.	.	.	2c/	.
*	*	*Xlig	*	*	*
!	!	!	!	!LO:LB:g=original	!
0D	.	[y1A;<l	-a	0d	.
=50-	=50-	=50-	=50-	=50-	=50-
.	.	0A_yy	.	.	.
1AA	.	.	.	1c	.
=51-	=51-	=51-	=51-	=51-	=51-
0AA;>l	-a	0A]yy	.	0c;<l	-a
=52-	=52-	=52-	=52-	=52-	=52-
*	*	*lig	*	*	*
1F	O-	1A	O-	0c	o-
1C	.	1G	.	.	.
*	*	*Xlig	*	*	*
=53-	=53-	=53-	=53-	=53-	=53-
*	*	*lig	*	*	*
1C	.	1E	.	1c	.
*	*	*custos:E	*	*	*
2c\	.	1F	.	1f	.
1A\	.	.	.	.	.
*	*	*Xlig	*	*	*
!	!	!LO:LB:g=original	!	!	!
=54-	=54-	=54-	=54-	=54-	=54-
*	*	*lig	*	*	*
.	.	1E	.	2g\	.
2G/	.	.	.	1g	.
*custos:B	*	*	*	*	*
1A	.	1D	.	.	.
.	.	.	.	2f\	.
*	*	*Xlig	*	*	*
!LO:LB:g=original	!	!	!	!	!
=55-	=55-	=55-	=55-	=55-	=55-
*	*	*lig	*	*	*
1B	.	1G	.	1g	.
1c	.	1A	.	0e	san-
*	*	*Xlig	*	*	*
=56-	=56-	=56-	=56-	=56-	=56-
*lig	*	*lig	*	*	*
1C	-san-	1G	-san-	.	.
*	*	*	*	*custos:f	*
1F	.	1A	.	0f	-na
*Xlig	*	*Xlig	*	*	*
!	!	!	!	!LO:LB:g=original	!
=57-	=57-	=57-	=57-	=57-	=57-
1F	-na	1A	-na	.	.
1D	in	1A	in	0f	in
=58-	=58-	=58-	=58-	=58-	=58-
*	*	*lig	*	*	*
1D	ex-	1A	ex-	.	.
1E	.	1G	.	0g	ex-
*	*	*Xlig	*	*	*
=59-	=59-	=59-	=59-	=59-	=59-
*	*	*lig	*	*	*
1C	.	1E	.	.	.
1F	.	1F	.	2c/	.
.	.	.	.	2d/	.
*	*	*Xlig	*	*	*
=60-	=60-	=60-	=60-	=60-	=60-
*	*	*lig	*	*	*
1G	.	1E	.	1e	.
2A/	.	1D	.	1f	.
2F/	.	.	.	.	.
*	*	*Xlig	*	*	*
=61-	=61-	=61-	=61-	=61-	=61-
1G	-cel-	1C	-el-	1e	.
2F/	.	1D	.	1f	.
*custos:C	*	*	*	*	*
1D/	.	.	.	.	.
=62-	=62-	=62-	=62-	=62-	=62-
*	*	*lig	*	*	*
.	.	1E	.	2g\	.
!LO:LB:g=original	!	!	!	!	!
2C/	.	.	.	2e/	.
1D	.	1F	.	1a	.
*	*	*Xlig	*	*	*
=63-	=63-	=63-	=63-	=63-	=63-
*lig	*	*	*	*	*
1G	.	0E	.	0g	-el-
1C	.	.	.	.	.
*Xlig	*	*	*	*	*
=64-	=64-	=64-	=64-	=64-	=64-
*lig	*	*	*	*	*
*	*	*custos:C	*	*	*
!	!	!LO:TX:a:t=P:problem=w źródle po ostatnie londze długi znak custos [najprawdopodobniej oznacza długi dźwięk]	!	!	!
1D	.	[y0D;>l	-sis	2f/	.
.	.	.	.	2e/	.
1GG	.	.	.	2d/	.
.	.	.	.	2c/	.
*Xlig	*	*	*	*	*
=65-	=65-	=65-	=65-	=65-	=65-
*	*	*	*	*custos:c	*
!LO:TX:a:t=P:problem=w źródle brak kreski końcowej	!	!	!	!	!
!	!	!	!	!LO:TX:a:t=P:problem=w źródle po ostatnie londze długi znak custos [najprawdopodobniej oznacza długi dźwięk]	!
0GG;>l	-sis	0D]yy	.	0B;<l	-ſis
==	==	==	==	==	==
*-	*-	*-	*-	*-	*-
!!title: @{OTL};
!!!RDF**kern: > = above
!!!RDF**kern: < = below
!!!RDF**kern: | = vertical stroke
!!!RDF**kern: N = linked
!!!RDF**kern: i = editorial accidental
!!!RDF**kern: l = terminal long
!!!ENC: Filip Voros
!!!END: 2021-12-31
!!!EED: Wojciech Jakubiak-Danek
!!!EST: 2022-01-02
!!!URL-scan: http://repozytorium.nifc.pl/skany/pl-kk-nut--i-3
!!!ONB-nifc: UWAGA: Discantus (s. 65r-66r, skan 0067-0068), Tenor (s. 45r-v, skan 0217-0218), Bassus (s. 60v-61v, skan 0364-0365). Następna część: Benedictus
